svgs/duotone/house-building.svg

<svg xmlns="http://www.w3.org/2000/svg" viewBox="0 0 640 512"><!--! Font Awesome Pro 6.5.1 by @fontawesome - https://fontawesome.com License - https://fontawesome.com/license (Commercial License) Copyright 2023 Fonticons, Inc. --><defs><style>.fa-secondary{opacity:.4}</style></defs><path class="fa-secondary" d="M320 48c0-26.5 21.5-48 48-48H592c26.5 0 48 21.5 48 48V464c0 26.5-21.5 48-48 48H400c10-13.4 16-30 16-48V352h16c8.8 0 16-7.2 16-16V304c0-8.8-7.2-16-16-16H416V277.1c0-7.2-1-14.3-2.8-21.1H432c8.8 0 16-7.2 16-16V208c0-8.8-7.2-16-16-16H400c-8.8 0-16 7.2-16 16v4.6l-64-58.7V48zM528 192c-8.8 0-16 7.2-16 16v32c0 8.8 7.2 16 16 16h32c8.8 0 16-7.2 16-16V208c0-8.8-7.2-16-16-16H528zM512 304v32c0 8.8 7.2 16 16 16h32c8.8 0 16-7.2 16-16V304c0-8.8-7.2-16-16-16H528c-8.8 0-16 7.2-16 16zM384 112v32c0 8.8 7.2 16 16 16h32c8.8 0 16-7.2 16-16V112c0-8.8-7.2-16-16-16H400c-8.8 0-16 7.2-16 16zM528 96c-8.8 0-16 7.2-16 16v32c0 8.8 7.2 16 16 16h32c8.8 0 16-7.2 16-16V112c0-8.8-7.2-16-16-16H528z"/><path class="fa-primary" d="M0 464V277.1c0-13.5 5.6-26.3 15.6-35.4l144-132c18.4-16.8 46.5-16.8 64.9 0l144 132c9.9 9.1 15.6 21.9 15.6 35.4V464c0 26.5-21.5 48-48 48H48c-26.5 0-48-21.5-48-48zM168 272c-13.3 0-24 10.7-24 24v48c0 13.3 10.7 24 24 24h48c13.3 0 24-10.7 24-24V296c0-13.3-10.7-24-24-24H168z"/></svg>

<svg xmlns="http://www.w3.org/2000/svg" viewBox="0 0 640 512"><!--! Font Awesome Pro 6.1.1 by @fontawesome - https://fontawesome.com License - https://fontawesome.com/license (Commercial License) Copyright 2022 Fonticons, Inc. --><defs><style>.fa-secondary{opacity:.4}</style></defs><path class="fa-primary" d="M.0003 464V277.1C.0003 263.7 5.647 250.8 15.57 241.7L159.6 109.7C177.9 92.91 206.1 92.91 224.4 109.7L368.4 241.7C378.4 250.8 384 263.7 384 277.1V464C384 490.5 362.5 512 336 512H48C21.49 512 0 490.5 0 464H.0003zM168 272C154.7 272 144 282.7 144 296V344C144 357.3 154.7 368 168 368H216C229.3 368 240 357.3 240 344V296C240 282.7 229.3 272 216 272H168z"/><path class="fa-secondary" d="M320 48C320 21.49 341.5 0 368 0H592C618.5 0 640 21.49 640 48V464C640 490.5 618.5 512 592 512H400C410 498.6 416 482 416 464V352H432C440.8 352 448 344.8 448 336V304C448 295.2 440.8 288 432 288H416V277.1C416 269.9 415 262.8 413.2 256H432C440.8 256 448 248.8 448 240V208C448 199.2 440.8 192 432 192H400C391.2 192 384 199.2 384 208V212.6L320 153.9V48zM528 192C519.2 192 512 199.2 512 208V240C512 248.8 519.2 256 528 256H560C568.8 256 576 248.8 576 240V208C576 199.2 568.8 192 560 192H528zM512 336C512 344.8 519.2 352 528 352H560C568.8 352 576 344.8 576 336V304C576 295.2 568.8 288 560 288H528C519.2 288 512 295.2 512 304V336zM384 144C384 152.8 391.2 160 400 160H432C440.8 160 448 152.8 448 144V112C448 103.2 440.8 96 432 96H400C391.2 96 384 103.2 384 112V144zM528 96C519.2 96 512 103.2 512 112V144C512 152.8 519.2 160 528 160H560C568.8 160 576 152.8 576 144V112C576 103.2 568.8 96 560 96H528z"/></svg>
